X: 030895
T: Castlebar Boy
S: "First Collection of Traditional Irish Music" (M.Mulvihill)
Z: B.Black
L: 1/8
M: 6/8
R: jig
K: G
f|gBB BAB|GBA GBd|gBB BAB|GBd e2 f|
gBB BAB|GBA GBd|g2 e fdB|GBd e2 :|
f|g3 bge|fdf afd|gfg bge|fed e2 f|
g3 bge|fdf afd|g2 e fdB|GBd e2 :|
